X: 21133
Q: "In the manner of a waltz."
M: 3/4
L: 1/16
K: G
d2(dA).df | e2d3^c | B2e3B | e2e3d |\
d2^c2B2 | A2(B^cde) | f2(defg) | a2 zAB^c |\
d2dAdf | e2d3^c | e2e3B | e2e3d |\
d2^c2B2 | A2(^GAB^c) | (ed^cd).f.a | d4 "^D.C."z2 |]


